!!!OTL: 1379. Abschied des Landwehrmannes (1870).
!!!ODT: 1880
!!!ARE: Europa, Mitteleuropa, Deutschland, Hessen, Taunus, Wuerges
!!!SCT: E1379
!!!TXL: @@DE
!!!YEM: Copyright 1995, estate of Helmut Schaffrath.
**kern	**text
*ICvox	*
*M4/4	*
*met(c)	*
*k[f#]	*
*G:	*
!LO:TX:a:t=Mäßig bewegt.	!
!LO:TX:a:t=Aus Würges im Taunus 1880.	!
{8d	Der
8e	Kö-
8f#	-nig
=1	=1
4.g	rief,
8g	und
8.b/	Al-
16b/	-le,
8a	Al-
8g	-le
=2	=2
4b/	ka-
4a	-men,
8r}	.
{8d	es
8e	blieb
8f#	auch
=3	=3
4.g	nicht
8g	ein
8.b	Ein-
16b	-ʒi-
8a	-ger
8g	ʒu
=4	=4
2a	Haus.
8r}	.
{8a	"So,
8a	dann
8a	ſo
=5	=5
4.a	ʒie-
8a	-hen
8a	wir
8cc	in
8ee	Got-
8dd	-tes
=6	=6
8ddL	Na-
8bJ	.
4b	-men
8r}	.
{8dd	ʒum
8ee	Krie-
8dd	-ge
=7	=7
8ddL	ge-
8ccJ	.
4cc	-gen
8f#	Frankreich
8f#	.
8e	jetʒt
8f#	hin-
=8	=8
4g;}	-aus."
{4d	So
4.cc	ſprach
8b	der
=9	=9
4.a	Land-
8a	-wehr-
8a	-mann
8cc	beim
8ee	Schei-
8dd	-de-
=10	=10
(8ddL	-gruß,
8ggJ	.
4b)	.
8r}	.
{8dd	gab
8ee	Frau
8dd	und
=11	=11
8ddL	Kin-
8ccJ	.
4cc	-dern
8f#	noch
8f#	den
8e	Ab-
8f#	-ſchieds-
=12	=12
2g	-kuß.
8r}	.
==	==
!!!AGN: Staende -, Soldaten -, Kriegs - Lied
!!!ONB: ESAC (Essen Associative Code) Database: ERK3
!!!AMT: simple quadruple
!!!AIN: vox
!!!EED: Helmut Schaffrath
!!!EEV: 1.0
!!!GTL: Staendelieder (Berufslieder). 1. Soldaten- und Kriegslieder. Soldatenlieder seit dem 30jaehr. Kriege.
!!!URL-scan: https://rosdok.uni-rostock.de/mcrviewer/recordIdentifier/rosdok_ppn745177999/iview2/phys_0251.iview2?x=-101.51655504651899&y=147.40559278742876&scale=0.5870222003877487&rotation=0&layout=singlePageLayout
!!!ENC: Anna Maria Matuszewska
!!!EEV: 2024/12/30
*-	*-
